images/LOGOS_CLIENTES/BAILARDA.svg

<svg width="115" height="26" viewBox="0 0 115 26" fill="none" xmlns="http://www.w3.org/2000/svg">
<path d="M29.5781 19.137V17.4411H30.2936C30.7954 17.4411 31.1184 17.3781 31.2591 17.2523C31.3999 17.1264 31.4711 16.8167 31.4711 16.3198V9.01122C31.4711 8.5094 31.3999 8.19639 31.2591 8.07383C31.1184 7.95127 30.7954 7.89 30.2936 7.89H29.5781V6.19409H37.1418C38.8311 6.19409 40.0699 6.4392 40.8582 6.92943C41.6465 7.41965 42.0407 8.18811 42.0407 9.23645C42.0407 9.95191 41.8122 10.5713 41.3534 11.0913C40.8946 11.613 40.2289 12.0105 39.3561 12.2871C40.4856 12.5322 41.3269 12.9247 41.8751 13.4646C42.4249 14.0045 42.6999 14.7117 42.6999 15.5845C42.6999 16.8531 42.2593 17.7623 41.3766 18.3105C40.4939 18.8604 39.0116 19.1353 36.9265 19.1353H29.5781V19.137ZM35.0981 11.5749H35.9643C36.8238 11.5749 37.4515 11.4242 37.844 11.1228C38.2365 10.8214 38.4319 10.3411 38.4319 9.68196C38.4319 9.05427 38.2448 8.59883 37.8722 8.31563C37.4979 8.03243 36.8884 7.89165 36.0405 7.89165H35.0981V11.5749ZM35.0981 17.4427H36.115C37.0755 17.4427 37.7761 17.2771 38.215 16.9442C38.6539 16.6113 38.8741 16.0847 38.8741 15.3626C38.8741 14.609 38.6539 14.0625 38.215 13.723C37.7761 13.3835 37.0689 13.2145 36.0951 13.2145H35.0964V17.4427H35.0981Z" fill="black"/>
<path d="M50.1003 18.0735C49.6929 18.5505 49.2259 18.9049 48.7009 19.1384C48.1759 19.3703 47.588 19.4862 46.9354 19.4862C46.0444 19.4862 45.3339 19.2494 44.8073 18.7757C44.279 18.302 44.0156 17.6694 44.0156 16.8778C44.0156 16.1424 44.2293 15.5793 44.6566 15.1868C45.0838 14.7943 45.9715 14.4531 47.3213 14.165C48.4641 13.9199 49.1795 13.6797 49.4693 13.4445C49.7575 13.2094 49.9033 12.8616 49.9033 12.4045C49.9033 11.9656 49.7277 11.6112 49.3766 11.3445C49.0255 11.0779 48.5502 10.9437 47.954 10.9437C47.6277 10.9437 47.3478 10.9736 47.116 11.0332C46.8841 11.0928 46.6771 11.1889 46.4949 11.3197C46.8344 11.3445 47.1077 11.4572 47.3147 11.6592C47.5217 11.8596 47.626 12.108 47.626 12.4028C47.626 12.7672 47.4853 13.0669 47.2021 13.3021C46.9189 13.5373 46.5545 13.6549 46.109 13.6549C45.6072 13.6549 45.2031 13.5191 44.8984 13.2491C44.5936 12.9792 44.4413 12.6281 44.4413 12.1941C44.4413 11.4091 44.8255 10.798 45.5956 10.3624C46.3641 9.92687 47.4406 9.70825 48.8218 9.70825C49.4992 9.70825 50.1152 9.76953 50.6684 9.89209C51.2216 10.0146 51.6538 10.1819 51.9685 10.3956C52.3328 10.6473 52.5879 10.9272 52.7353 11.2385C52.8827 11.5499 52.9572 12.0716 52.9572 12.8069V13.062V16.5747C52.9572 16.8695 52.997 17.0881 53.0748 17.2289C53.1526 17.3696 53.2802 17.4408 53.4557 17.4408C53.6313 17.4408 53.7555 17.3746 53.8284 17.2438C53.9012 17.1113 53.936 16.8893 53.936 16.5747V15.783H55.0953V16.6691C55.0953 17.6429 54.8817 18.355 54.4544 18.8072C54.0271 19.2593 53.353 19.4845 52.4289 19.4845C51.8261 19.4845 51.3276 19.3653 50.9367 19.1268C50.5425 18.89 50.2643 18.5372 50.1003 18.0735ZM49.847 14.6453C49.6018 14.7711 49.269 14.9351 48.8483 15.1355C47.843 15.6257 47.3412 16.0845 47.3412 16.5101C47.3412 16.8181 47.4472 17.0666 47.6608 17.2537C47.8745 17.4425 48.1544 17.5369 48.4988 17.5369C48.9195 17.5369 49.2491 17.4028 49.4876 17.1311C49.7261 16.8612 49.8453 16.4819 49.8453 15.9917V14.6453H49.847Z" fill="black"/>
<path d="M60.3014 6.19556V16.6691C60.3014 17.0715 60.356 17.3216 60.467 17.4226C60.5763 17.5237 60.8131 17.5734 61.1775 17.5734H61.6959V19.1368H55.6211V17.5734H56.1395C56.5104 17.5734 56.7539 17.5187 56.8698 17.4077C56.9858 17.2984 57.0437 17.0517 57.0437 16.6691V8.8984C57.0437 8.38996 56.994 8.07198 56.893 7.94777C56.792 7.8219 56.5535 7.75897 56.1776 7.75897H55.6211V6.19556H60.3014Z" fill="black"/>
<path d="M63.9947 12.7706V12.658C63.9947 12.1744 63.9401 11.8829 63.8291 11.7818C63.7198 11.6808 63.4846 11.6311 63.1269 11.6311H62.5059V10.0296H67.2524V16.6692C67.2524 17.0517 67.3071 17.2985 67.418 17.4078C67.5273 17.5171 67.7625 17.5734 68.1202 17.5734H68.6005V19.1368H62.5059V17.5734H63.0905C63.4615 17.5734 63.7049 17.5188 63.8208 17.4078C63.9368 17.2985 63.9947 17.0517 63.9947 16.6692V12.7706ZM63.8341 7.67457C63.8341 7.23569 63.9914 6.85975 64.3044 6.54839C64.6191 6.23703 64.9951 6.08301 65.4339 6.08301C65.8795 6.08301 66.2587 6.23869 66.5684 6.54839C66.8798 6.85975 67.0338 7.23404 67.0338 7.67457C67.0338 8.12008 66.8781 8.49934 66.5684 8.80904C66.2571 9.1204 65.8795 9.27608 65.4339 9.27608C64.9818 9.27608 64.6026 9.12371 64.2945 8.81898C63.9881 8.51425 63.8341 8.13333 63.8341 7.67457Z" fill="black"/>
<path d="M75.6843 18.0735C75.2769 18.5505 74.8099 18.9049 74.2849 19.1384C73.7599 19.3703 73.1719 19.4862 72.5194 19.4862C71.6284 19.4862 70.9179 19.2494 70.3913 18.7757C69.8646 18.302 69.5996 17.6694 69.5996 16.8778C69.5996 16.1424 69.8133 15.5793 70.2405 15.1868C70.6678 14.7943 71.5555 14.4531 72.9053 14.165C74.048 13.9199 74.7635 13.6797 75.0533 13.4445C75.3432 13.2094 75.4872 12.8616 75.4872 12.4045C75.4872 11.9656 75.3117 11.6112 74.9606 11.3445C74.6095 11.0779 74.1342 10.9437 73.538 10.9437C73.2117 10.9437 72.9318 10.9736 72.6999 11.0332C72.4681 11.0928 72.2611 11.1889 72.0789 11.3197C72.4184 11.3445 72.6917 11.4572 72.8987 11.6592C73.1057 11.8613 73.21 12.108 73.21 12.4028C73.21 12.7672 73.0693 13.0669 72.7861 13.3021C72.5029 13.5373 72.1385 13.6549 71.693 13.6549C71.1912 13.6549 70.7871 13.5191 70.4823 13.2491C70.1776 12.9792 70.0252 12.6281 70.0252 12.1941C70.0252 11.4091 70.4095 10.798 71.1796 10.3624C71.948 9.92687 73.0245 9.70825 74.4058 9.70825C75.0831 9.70825 75.6992 9.76953 76.2524 9.89209C76.8055 10.0146 77.2378 10.1819 77.5525 10.3956C77.9168 10.6473 78.1719 10.9272 78.3193 11.2385C78.4667 11.5499 78.5412 12.0716 78.5412 12.8069V13.062V16.5747C78.5412 16.8695 78.5809 17.0881 78.6588 17.2289C78.7366 17.3696 78.8642 17.4408 79.0397 17.4408C79.2153 17.4408 79.3395 17.3746 79.4123 17.2438C79.4852 17.1113 79.52 16.8893 79.52 16.5747V15.783H80.6793V16.6691C80.6793 17.6429 80.4657 18.355 80.0384 18.8072C79.6111 19.2593 78.937 19.4845 78.0129 19.4845C77.41 19.4845 76.9115 19.3653 76.5207 19.1268C76.1249 18.89 75.8466 18.5372 75.6843 18.0735ZM75.4293 14.6453C75.1842 14.7711 74.8513 14.9351 74.4306 15.1355C73.4253 15.6257 72.9235 16.0845 72.9235 16.5101C72.9235 16.8181 73.0295 17.0666 73.2432 17.2537C73.4568 17.4425 73.7367 17.5369 74.0812 17.5369C74.5018 17.5369 74.8314 17.4028 75.0699 17.1311C75.3084 16.8612 75.4276 16.4819 75.4276 15.9917V14.6453H75.4293Z" fill="black"/>
<path d="M81.2598 19.1369V17.5735H81.8345C82.2054 17.5735 82.4505 17.5155 82.5698 17.3996C82.689 17.2837 82.7486 17.0402 82.7486 16.6692V12.4974C82.7486 12.1264 82.689 11.8829 82.5698 11.767C82.4505 11.6511 82.2054 11.5931 81.8345 11.5931H81.2598V10.0297H85.8092V10.9439C86.1487 10.5547 86.5147 10.2615 86.9073 10.0628C87.2998 9.86407 87.7072 9.76636 88.1278 9.76636C88.8118 9.76636 89.3517 9.95847 89.7476 10.341C90.1434 10.7236 90.3405 11.2387 90.3405 11.8862C90.3405 12.446 90.1831 12.8948 89.8701 13.2327C89.5555 13.5722 89.1414 13.7411 88.6263 13.7411C88.2239 13.7411 87.8894 13.6086 87.6227 13.3453C87.3561 13.082 87.2219 12.7557 87.2219 12.3649C87.2219 12.0701 87.3031 11.8216 87.467 11.6213C87.631 11.4209 87.8629 11.2768 88.1643 11.1873C88.045 11.131 87.9407 11.0913 87.8529 11.0698C87.7652 11.0482 87.684 11.0366 87.6078 11.0366C87.1308 11.0366 86.7383 11.2917 86.4303 11.8001C86.1222 12.3086 85.9682 12.9677 85.9682 13.7776V16.6692C85.9682 17.0402 86.0262 17.2837 86.1421 17.3996C86.258 17.5155 86.5015 17.5735 86.8725 17.5735H87.6459V19.1369H81.2598Z" fill="black"/>
<path d="M97.7512 8.66323C97.7512 8.27403 97.6883 8.02561 97.5624 7.91962C97.4366 7.81362 97.1948 7.75897 96.837 7.75897H96.206V6.19556H100.972V16.6757C100.972 17.0434 101.03 17.2852 101.146 17.4011C101.262 17.517 101.506 17.5734 101.877 17.5734H102.319V19.1368H97.8821V17.9029C97.5111 18.4495 97.0987 18.8503 96.6433 19.1036C96.1878 19.3587 95.6562 19.4846 95.0467 19.4846C93.803 19.4846 92.8556 19.0738 92.2031 18.2507C91.5506 17.4276 91.2227 16.2252 91.2227 14.6436C91.2227 13.1365 91.5589 11.9408 92.2313 11.0547C92.9037 10.1687 93.798 9.72648 94.9159 9.72648C95.4806 9.72648 95.9957 9.83745 96.4611 10.061C96.9265 10.2846 97.3554 10.6274 97.7512 11.0928V8.66323ZM94.7172 14.6453C94.7172 15.682 94.8463 16.4654 95.103 16.9954C95.3597 17.527 95.7407 17.792 96.2425 17.792C96.7509 17.792 97.1302 17.5353 97.3769 17.0202C97.6254 16.5051 97.7496 15.7135 97.7496 14.6469C97.7496 13.5605 97.6287 12.7655 97.3869 12.2587C97.1451 11.7536 96.7642 11.5002 96.2425 11.5002C95.7158 11.5002 95.3283 11.7536 95.0832 12.2587C94.838 12.7639 94.7172 13.5588 94.7172 14.6453Z" fill="black"/>
<path d="M109.27 18.0735C108.863 18.5505 108.396 18.9049 107.871 19.1384C107.346 19.3703 106.758 19.4862 106.105 19.4862C105.214 19.4862 104.504 19.2494 103.977 18.7757C103.451 18.302 103.186 17.6694 103.186 16.8778C103.186 16.1424 103.399 15.5793 103.826 15.1868C104.254 14.7943 105.141 14.4531 106.491 14.165C107.634 13.9199 108.349 13.6797 108.639 13.4445C108.929 13.2094 109.073 12.8616 109.073 12.4045C109.073 11.9656 108.898 11.6112 108.547 11.3445C108.195 11.0779 107.72 10.9437 107.124 10.9437C106.798 10.9437 106.518 10.9736 106.286 11.0332C106.054 11.0928 105.847 11.1889 105.665 11.3197C106.004 11.3445 106.278 11.4572 106.485 11.6592C106.692 11.8613 106.796 12.108 106.796 12.4028C106.796 12.7672 106.655 13.0669 106.372 13.3021C106.089 13.5373 105.724 13.6549 105.279 13.6549C104.777 13.6549 104.373 13.5191 104.068 13.2491C103.764 12.9792 103.611 12.6281 103.611 12.1941C103.611 11.4091 103.995 10.798 104.766 10.3624C105.534 9.92687 106.61 9.70825 107.992 9.70825C108.669 9.70825 109.285 9.76953 109.838 9.89209C110.391 10.0146 110.824 10.1819 111.138 10.3956C111.503 10.6473 111.758 10.9272 111.905 11.2385C112.053 11.5499 112.127 12.0716 112.127 12.8069V13.062V16.5747C112.127 16.8695 112.167 17.0881 112.245 17.2289C112.323 17.3696 112.45 17.4408 112.626 17.4408C112.801 17.4408 112.925 17.3746 112.998 17.2438C113.071 17.1113 113.106 16.8893 113.106 16.5747V15.783H114.265V16.6691C114.265 17.6429 114.052 18.355 113.624 18.8072C113.197 19.2593 112.523 19.4845 111.599 19.4845C110.996 19.4845 110.497 19.3653 110.107 19.1268C109.711 18.89 109.433 18.5372 109.27 18.0735ZM109.015 14.6453C108.77 14.7711 108.437 14.9351 108.017 15.1355C107.011 15.6257 106.509 16.0845 106.509 16.5101C106.509 16.8181 106.615 17.0666 106.829 17.2537C107.043 17.4425 107.323 17.5369 107.667 17.5369C108.088 17.5369 108.417 17.4028 108.656 17.1311C108.894 16.8612 109.014 16.4819 109.014 15.9917V14.6453H109.015Z" fill="black"/>
<path d="M17.5252 25.7797H11.038C10.8906 25.7797 10.7564 25.6903 10.7001 25.5545C10.6438 25.417 10.6753 25.2597 10.7813 25.157L18.0021 18.014C18.0071 18.0091 18.0137 18.0041 18.0187 17.9991C18.8219 17.2986 18.4675 16.6941 18.398 16.5914L15.7382 13.8538C15.599 13.7113 15.6007 13.4828 15.7415 13.342L19.0637 10.0198C19.0753 10.0082 19.0869 9.99822 19.1002 9.98829C19.1018 9.98663 19.2641 9.85248 19.2757 9.62724C19.2873 9.39869 19.1399 9.12377 18.8501 8.83394C18.6629 8.6468 18.4824 8.55902 18.2903 8.56233C17.974 8.56896 17.7156 8.83063 17.7123 8.83394C17.709 8.83726 17.7057 8.84057 17.7024 8.84388L13.4361 13.1101L15.9352 15.6093C16.2135 15.8875 16.3509 16.2204 16.3327 16.5682C16.2996 17.1926 15.7845 17.6596 15.6686 17.7573L7.9211 25.5048C7.8532 25.5727 7.76045 25.6108 7.66274 25.6108C7.56668 25.6108 7.47394 25.5727 7.40438 25.5048L0.104041 18.2045C0.0361384 18.1366 -0.00195312 18.0438 -0.00195312 17.9461V8.00752C-0.00195312 7.90981 0.0377946 7.81706 0.105697 7.7475L7.83829 0.105994C7.9062 0.0380915 7.99894 0 8.095 0H14.9217C15.0691 0 15.2032 0.0894326 15.2595 0.225237C15.3158 0.361042 15.2844 0.518378 15.18 0.622715L2.72574 13.0257L7.57662 18.019L9.02245 16.6096L5.68032 13.1698C5.61242 13.1002 5.57598 13.0075 5.57764 12.9097C5.5793 12.8137 5.61904 12.7209 5.6886 12.653L18.0303 0.679024C18.1015 0.611122 18.1959 0.573031 18.2936 0.576343C18.3913 0.579656 18.4841 0.621059 18.552 0.692274L23.908 6.46895C23.9146 6.47558 23.9212 6.48386 23.9262 6.49048C24.6119 7.35665 25.5327 9.39372 24.1167 10.9041C24.115 10.9058 24.1134 10.9075 24.1117 10.9091L22.0282 13.0422L24.004 15.018C24.0256 15.0396 24.0438 15.0644 24.0604 15.0909C24.11 15.1737 25.2511 17.1545 24.0455 19.5377C24.0272 19.5741 24.0024 19.6072 23.9742 19.6337L18.2506 25.2001L17.7819 25.6688C17.714 25.7417 17.6212 25.7797 17.5252 25.7797ZM11.9257 25.051H17.3728L17.7388 24.685L23.4227 19.1584C24.3303 17.3068 23.5933 15.765 23.4542 15.5016L21.2581 13.3056C21.1157 13.1631 21.1157 12.9329 21.2581 12.7905L21.389 12.6597L23.5883 10.4073C24.8818 9.0244 23.479 7.10988 23.3631 6.95586L18.2704 1.46404L6.45872 12.9247L9.79918 16.3645C9.93996 16.5086 9.93665 16.7388 9.79256 16.8796L7.82505 18.7974C7.75549 18.8653 7.6644 18.9034 7.56503 18.9017C7.46897 18.9001 7.37623 18.8603 7.30832 18.7908L1.95231 13.2758C1.81319 13.1333 1.81485 12.9048 1.95728 12.764L14.0406 0.730366H8.24736L0.728412 8.15989V17.7954L7.66274 24.7297L15.1635 17.229C15.1734 17.2191 15.1817 17.2108 15.1933 17.2025C15.3026 17.1131 15.5891 16.8166 15.604 16.5268C15.6106 16.3877 15.551 16.2568 15.4185 16.1243L12.661 13.3668C12.5186 13.2244 12.5186 12.9942 12.661 12.8518L17.1823 8.33047C17.2502 8.25926 17.6709 7.84356 18.2754 7.83197C18.6696 7.82534 19.0356 7.98765 19.3651 8.31722C19.8189 8.77101 20.0326 9.23142 20.0028 9.68355C19.9696 10.1721 19.6616 10.4669 19.5672 10.5481L16.5132 13.602L18.9412 16.1012C18.9511 16.1111 18.961 16.1227 18.9693 16.1343C19.2857 16.55 19.5937 17.5851 18.5073 18.539L11.9257 25.051Z" fill="black"/>
</svg>

<svg width="115" height="26" fill="none" xmlns="http://www.w3.org/2000/svg"><path d="M29.578 19.137v-1.696h.716c.501 0 .824-.063.965-.189.14-.126.212-.435.212-.932V9.01c0-.502-.071-.815-.212-.937-.14-.123-.464-.184-.965-.184h-.716V6.194h7.564c1.69 0 2.928.245 3.716.735.789.49 1.183 1.26 1.183 2.307 0 .716-.229 1.335-.688 1.855-.458.522-1.124.92-1.997 1.196 1.13.245 1.97.638 2.52 1.178.549.54.824 1.247.824 2.12 0 1.268-.44 2.177-1.323 2.726-.883.55-2.365.824-4.45.824h-7.349v.002Zm5.52-7.562h.866c.86 0 1.488-.15 1.88-.452.392-.302.588-.782.588-1.441 0-.628-.187-1.083-.56-1.366-.374-.284-.984-.424-1.831-.424h-.943v3.683Zm0 5.868h1.017c.96 0 1.661-.166 2.1-.499.439-.333.66-.86.66-1.581 0-.754-.221-1.3-.66-1.64-.439-.34-1.146-.509-2.12-.509h-.999v4.229h.002ZM50.1 18.073a3.938 3.938 0 0 1-1.4 1.065c-.524.232-1.112.348-1.765.348-.89 0-1.601-.237-2.128-.71-.528-.474-.791-1.107-.791-1.898 0-.736.213-1.299.64-1.691.428-.393 1.316-.734 2.665-1.022 1.143-.245 1.858-.485 2.148-.72.288-.236.434-.583.434-1.04 0-.44-.175-.794-.526-1.06-.352-.267-.827-.401-1.423-.401-.326 0-.606.03-.838.09a1.84 1.84 0 0 0-.621.286c.34.024.613.137.82.34.207.2.311.448.311.743 0 .364-.14.664-.424.9-.283.234-.648.352-1.093.352-.502 0-.906-.136-1.21-.406-.305-.27-.458-.62-.458-1.055 0-.785.384-1.396 1.155-1.832.768-.435 1.845-.654 3.226-.654.677 0 1.293.062 1.846.184.554.123.986.29 1.3.504.365.251.62.531.767.842.148.312.222.834.222 1.569v3.768c0 .294.04.513.118.654.078.14.205.212.38.212.176 0 .3-.066.373-.197.073-.133.108-.355.108-.67v-.791h1.16v.886c0 .974-.214 1.686-.642 2.138-.427.452-1.101.678-2.025.678-.603 0-1.101-.12-1.492-.358-.395-.237-.673-.59-.837-1.053Zm-.253-3.428c-.245.126-.578.29-.999.49-1.005.49-1.507.95-1.507 1.375 0 .308.106.557.32.744.213.188.493.283.838.283.42 0 .75-.134.989-.406.238-.27.357-.65.357-1.14v-1.346h.002ZM60.301 6.196v10.473c0 .402.055.653.166.754.11.1.346.15.71.15h.519v1.564H55.62v-1.564h.518c.371 0 .615-.054.73-.165.117-.11.175-.356.175-.739V8.9c0-.509-.05-.827-.151-.951-.101-.126-.34-.189-.715-.189h-.557V6.196h4.68ZM63.995 12.77v-.112c0-.484-.055-.775-.166-.876-.11-.101-.344-.15-.702-.15h-.621V10.03h4.746v6.64c0 .382.055.628.166.738.11.11.344.165.702.165h.48v1.564h-6.094v-1.564h.584c.371 0 .615-.054.73-.165.117-.11.175-.356.175-.739v-3.898Zm-.16-5.095c0-.44.156-.815.47-1.127.314-.311.69-.465 1.129-.465.445 0 .825.156 1.134.465.312.312.466.686.466 1.127 0 .445-.156.824-.466 1.134a1.543 1.543 0 0 1-1.134.467c-.452 0-.831-.152-1.14-.457-.306-.305-.46-.686-.46-1.144ZM75.684 18.073a3.938 3.938 0 0 1-1.4 1.065c-.524.232-1.112.348-1.765.348-.89 0-1.601-.237-2.128-.71-.526-.474-.791-1.107-.791-1.898 0-.736.213-1.299.64-1.691.428-.393 1.316-.734 2.665-1.022 1.143-.245 1.858-.485 2.148-.72.29-.236.434-.583.434-1.04 0-.44-.175-.794-.526-1.06-.352-.267-.827-.401-1.423-.401-.326 0-.606.03-.838.09a1.84 1.84 0 0 0-.621.286c.34.024.613.137.82.34a.998.998 0 0 1 .311.743c0 .364-.14.664-.424.9-.283.234-.648.352-1.093.352-.502 0-.906-.136-1.21-.406-.305-.27-.458-.62-.458-1.055 0-.785.384-1.396 1.155-1.832.768-.435 1.844-.654 3.226-.654.677 0 1.293.062 1.846.184.553.123.986.29 1.3.504.365.251.62.531.767.842.148.312.222.834.222 1.569v3.768c0 .294.04.513.118.654.078.14.205.212.38.212.176 0 .3-.066.373-.197.073-.133.108-.355.108-.67v-.791h1.16v.886c0 .974-.214 1.686-.642 2.138-.427.452-1.101.678-2.025.678-.603 0-1.102-.12-1.492-.358-.396-.237-.674-.59-.837-1.053Zm-.255-3.428c-.245.126-.578.29-.998.49-1.006.49-1.507.95-1.507 1.375 0 .308.105.557.32.744.213.188.493.283.837.283.42 0 .75-.134.989-.406.238-.27.358-.65.358-1.14v-1.346h.001ZM81.26 19.137v-1.564h.575c.37 0 .616-.058.735-.173.119-.116.179-.36.179-.73v-4.173c0-.37-.06-.614-.18-.73-.118-.116-.364-.174-.734-.174h-.575V10.03h4.55v.914c.339-.39.705-.683 1.097-.881a2.67 2.67 0 0 1 1.22-.297c.685 0 1.225.192 1.62.575.396.383.594.898.594 1.545 0 .56-.158 1.009-.47 1.347-.316.34-.73.508-1.245.508-.402 0-.737-.132-1.003-.396-.267-.263-.401-.59-.401-.98 0-.295.081-.543.245-.744.164-.2.396-.344.697-.434a1.711 1.711 0 0 0-.311-.117 1.029 1.029 0 0 0-.245-.033c-.477 0-.87.255-1.178.763-.308.509-.462 1.168-.462 1.978v2.891c0 .371.058.615.174.73.116.116.36.174.73.174h.774v1.564H81.26ZM97.751 8.663c0-.389-.063-.637-.189-.743-.125-.106-.367-.161-.725-.161h-.631V6.196h4.766v10.48c0 .367.058.61.174.725.116.116.36.172.731.172h.442v1.564h-4.437v-1.234c-.37.547-.783.947-1.239 1.2-.455.256-.987.382-1.596.382-1.244 0-2.191-.411-2.844-1.234-.652-.823-.98-2.026-.98-3.607 0-1.508.336-2.703 1.008-3.59.673-.885 1.567-1.328 2.685-1.328.565 0 1.08.111 1.545.335.466.224.894.566 1.29 1.032v-2.43Zm-3.034 5.982c0 1.037.13 1.82.386 2.35.257.532.638.797 1.14.797.508 0 .887-.257 1.134-.772.248-.515.373-1.306.373-2.373 0-1.087-.121-1.882-.363-2.388-.242-.505-.623-.759-1.144-.759-.527 0-.915.254-1.16.759-.245.505-.366 1.3-.366 2.386ZM109.27 18.073a3.933 3.933 0 0 1-1.399 1.065c-.525.232-1.113.348-1.766.348-.891 0-1.601-.237-2.128-.71-.526-.474-.791-1.107-.791-1.898 0-.736.213-1.299.64-1.691.428-.393 1.315-.734 2.665-1.022 1.143-.245 1.858-.485 2.148-.72.29-.236.434-.583.434-1.04 0-.44-.175-.794-.526-1.06-.352-.267-.827-.401-1.423-.401-.326 0-.606.03-.838.09-.232.059-.439.155-.621.286.339.024.613.137.82.34a.998.998 0 0 1 .311.743c0 .364-.141.664-.424.9-.283.234-.648.352-1.093.352-.502 0-.906-.136-1.211-.406-.304-.27-.457-.62-.457-1.055 0-.785.384-1.396 1.155-1.832.768-.435 1.844-.654 3.226-.654.677 0 1.293.062 1.846.184.553.123.986.29 1.3.504.365.251.62.531.767.842.148.312.222.834.222 1.569v3.768c0 .294.04.513.118.654.078.14.205.212.381.212.175 0 .299-.066.372-.197.073-.133.108-.355.108-.67v-.791h1.159v.886c0 .974-.213 1.686-.641 2.138-.427.452-1.101.678-2.025.678-.603 0-1.102-.12-1.492-.358-.396-.237-.674-.59-.837-1.053Zm-.255-3.428c-.245.126-.578.29-.998.49-1.006.49-1.508.95-1.508 1.375 0 .308.106.557.32.744.214.188.494.283.838.283.421 0 .75-.134.989-.406.238-.27.358-.65.358-1.14v-1.346h.001ZM17.525 25.78h-6.487a.367.367 0 0 1-.338-.226.362.362 0 0 1 .081-.397l7.221-7.143.017-.015c.803-.7.449-1.305.379-1.408l-2.66-2.737a.364.364 0 0 1 .004-.512l3.322-3.322a.327.327 0 0 1 .036-.032c.002-.001.164-.136.176-.36.011-.23-.136-.504-.426-.794-.187-.187-.368-.275-.56-.272-.316.007-.574.269-.578.272l-.01.01-4.266 4.266 2.5 2.5c.277.277.415.61.397.958-.033.625-.548 1.092-.664 1.19L7.92 25.504a.37.37 0 0 1-.517 0l-7.3-7.3a.365.365 0 0 1-.106-.259V8.008c0-.098.04-.19.108-.26L7.838.105A.364.364 0 0 1 8.095 0h6.827a.365.365 0 0 1 .258.623L2.726 13.026l4.85 4.993 1.446-1.41-3.342-3.44a.369.369 0 0 1 .008-.517L18.03.68a.365.365 0 0 1 .522.013l5.356 5.777a.218.218 0 0 1 .018.021c.686.867 1.607 2.904.19 4.414l-.004.005-2.084 2.133 1.976 1.976c.022.022.04.046.056.073.05.083 1.191 2.063-.014 4.447a.347.347 0 0 1-.072.096L18.251 25.2l-.47.469a.348.348 0 0 1-.256.11Zm-5.6-.729h5.448l.366-.366 5.684-5.527c.907-1.851.17-3.393.031-3.656l-2.196-2.196a.364.364 0 0 1 0-.515l.131-.131 2.2-2.253c1.293-1.383-.11-3.297-.226-3.451L18.27 1.464 6.46 12.924l3.34 3.44a.364.364 0 0 1-.006.516l-1.968 1.917a.36.36 0 0 1-.26.105.368.368 0 0 1-.257-.111l-5.356-5.515a.363.363 0 0 1 .005-.512L14.041.73H8.247L.728 8.16v9.635l6.935 6.935 7.5-7.501c.01-.01.019-.018.03-.026.11-.09.396-.386.411-.676.007-.14-.053-.27-.185-.403l-2.758-2.757a.364.364 0 0 1 0-.515l4.521-4.522c.068-.07.489-.486 1.093-.498.395-.007.76.156 1.09.485.454.454.668.914.638 1.367a1.275 1.275 0 0 1-.436.864l-3.054 3.054 2.428 2.5c.01.01.02.02.028.032.317.416.625 1.451-.462 2.405l-6.581 6.512Z" fill="#000"/></svg>
